svgs/duotone/sign-hanging.svg

<svg xmlns="http://www.w3.org/2000/svg" viewBox="0 0 512 512"><!--! Font Awesome Pro 6.6.0 by @fontawesome - https://fontawesome.com License - https://fontawesome.com/license (Commercial License) Copyright 2024 Fonticons, Inc. --><defs><style>.fa-secondary{opacity:.4}</style></defs><path class="fa-secondary" d="M0 96c0 17.7 14.3 32 32 32l32 0 0 352c0 17.7 14.3 32 32 32s32-14.3 32-32l0-352 352 0c17.7 0 32-14.3 32-32s-14.3-32-32-32L128 64l0-32c0-17.7-14.3-32-32-32S64 14.3 64 32l0 32L32 64C14.3 64 0 78.3 0 96z"/><path class="fa-primary" d="M192 160c-17.7 0-32 14.3-32 32l0 160c0 17.7 14.3 32 32 32l256 0c17.7 0 32-14.3 32-32l0-160c0-17.7-14.3-32-32-32l-256 0z"/></svg>

<svg xmlns="http://www.w3.org/2000/svg" viewBox="0 0 512 512"><!--! Font Awesome Pro 6.4.0 by @fontawesome - https://fontawesome.com License - https://fontawesome.com/license (Commercial License) Copyright 2023 Fonticons, Inc. --><defs><style>.fa-secondary{opacity:.4}</style></defs><path class="fa-primary" d="M192 160c-17.7 0-32 14.3-32 32V352c0 17.7 14.3 32 32 32H448c17.7 0 32-14.3 32-32V192c0-17.7-14.3-32-32-32H192z"/><path class="fa-secondary" d="M128 32c0-17.7-14.3-32-32-32S64 14.3 64 32V64H32C14.3 64 0 78.3 0 96s14.3 32 32 32H64V480c0 17.7 14.3 32 32 32s32-14.3 32-32V128l352 0c17.7 0 32-14.3 32-32s-14.3-32-32-32L128 64V32z"/></svg>
